svgs/sharp-solid/sensor-fire.svg

<svg xmlns="http://www.w3.org/2000/svg" viewBox="0 0 640 512"><!--! Font Awesome Pro 6.6.0 by @fontawesome - https://fontawesome.com License - https://fontawesome.com/license (Commercial License) Copyright 2024 Fonticons, Inc. --><path d="M448 32L0 32 0 480l336.8 0C306.5 446.1 288 401.3 288 352.2c0-56.8 36.1-108.8 71.8-150.1c26.7-30.8 56.6-57.5 88.2-83.1l0-87zM112 120l0 144 0 24-48 0 0-24 0-144 0-24 48 0 0 24zm96 0l0 144 0 24-48 0 0-24 0-144 0-24 48 0 0 24zm240 40c-42.7 26.7-128 102.4-128 192c0 88.4 71.6 160 160 160s160-71.6 160-160c0-26.7-19.2-96-96-160l-32 32-64-64zm96 240.2c0 35.3-28.7 64-64 64s-64-28.7-64-64c0-48 64-96 64-96s64 48 64 96z"/></svg>

<svg xmlns="http://www.w3.org/2000/svg" viewBox="0 0 640 512"><!--! Font Awesome Pro 6.4.2 by @fontawesome - https://fontawesome.com License - https://fontawesome.com/license (Commercial License) Copyright 2023 Fonticons, Inc. --><path d="M448 32H0V480H336.8C306.5 446.1 288 401.3 288 352.2c0-56.8 36.1-108.8 71.8-150.1c26.7-30.8 56.6-57.5 88.2-83.1V32zM112 120V264v24H64V264 120 96h48v24zm96 0V264v24H160V264 120 96h48v24zM513 224.1c-32.3-37.5-65-64-65-64s-128 103.6-128 192s71.6 160 160 160s160-71.6 160-160c0-73.6-96-160-96-160s-13.9 12.5-31 32zM530 433c-15 10-31 15-49 15c-45 0-81-29-81-78c0-24 15-45 45-82c4 5 62 79 62 79l36-42c3 4 5 8 7 12c18 33 10 75-20 96z"/></svg>
